X:1
T:Captain Thompson
M:4/4
L:1/4
K:F
(3A3.99999962500005/11.9999985000002A3.99999962500005/11.9999985000002=B3.99999962500005/11.9999985000002A3.99999962500005/11.9999985000002=B3.99999962500005/11.9999985000002c3.99999962500005/11.9999985000002|\
 d3/2 e/2 f e| d3/2 c/2 AG/2-E/2| D3/2- E/2- F G| A3| A| d3/2 e/2 f e|\
 d3/2- c/2 AG/2-E/2| AG/2-E/2 D D| D3|A/2-G/2| F F FE/2-D/2| E E ED/2-C/2|\
 D3/2 E/2 F G| A3| A| d3/2 e/2 f e| d- c A G/2E/2| AG/2-E/2 D D| D3||\
